<?xml version="1.0" encoding="UTF-8"?>
<map version="1.10" tiledversion="1.11.0" orientation="orthogonal" renderorder="right-down" width="20" height="20" tilewidth="16" tileheight="16" infinite="0" nextlayerid="5" nextobjectid="5">
 <properties>
  <property name="edges" value="clamped"/>
  <property name="map_type" value="town"/>
  <property name="slug" value="ai_generated_town"/>
 </properties>
 <tileset firstgid="1" source="../gfx/tilesets/core_outdoor.tsx"/>
 <tileset firstgid="2776" source="../gfx/tilesets/core_indoor_floors.tsx"/>
 <tileset firstgid="6640" source="../gfx/tilesets/core_buildings.tsx"/>
 <tileset firstgid="8990" source="../gfx/tilesets/core_set pieces.tsx"/>
 <tileset firstgid="10540" source="../gfx/tilesets/core_city_and_country.tsx"/>
 <layer id="1" name="ground" width="20" height="20">
  <data encoding="csv">
112,112,112,112,112,112,112,112,112,112,112,112,112,112,112,112,112,112,112,112,
112,112,112,112,112,112,112,112,112,112,112,112,112,112,112,112,112,112,112,112,
112,112,112,112,112,112,112,112,112,112,112,112,112,112,112,112,112,112,112,112,
112,112,112,112,112,112,112,112,112,112,112,112,112,112,112,112,112,112,112,112,
112,112,112,112,112,112,112,112,112,112,112,112,112,112,112,112,112,112,112,112,
112,112,112,112,112,112,112,112,112,112,112,112,112,112,112,112,112,112,112,112,
112,112,112,112,112,112,112,112,112,112,112,112,112,112,112,112,112,112,112,112,
112,112,112,112,112,112,112,112,112,112,112,112,112,112,112,112,112,112,112,112,
112,112,112,112,112,112,112,112,112,112,112,112,112,112,112,112,112,112,112,112,
112,112,112,112,112,112,112,112,112,112,112,112,112,112,112,112,112,112,112,112,
112,112,112,112,112,112,112,112,112,112,112,112,112,112,112,112,112,112,112,112,
112,112,112,112,112,112,112,112,112,112,112,112,112,112,112,112,112,112,112,112,
112,112,112,112,112,112,112,112,112,112,112,112,112,112,112,112,112,112,112,112,
112,112,112,112,112,112,112,112,112,112,112,112,112,112,112,112,112,112,112,112,
112,112,112,112,112,112,112,112,112,112,112,112,112,112,112,112,112,112,112,112,
112,112,112,112,112,112,112,112,112,112,112,112,112,112,112,112,112,112,112,112,
112,112,112,112,112,112,112,112,112,112,112,112,112,112,112,112,112,112,112,112,
112,112,112,112,112,112,112,112,112,112,112,112,112,112,112,112,112,112,112,112,
112,112,112,112,112,112,112,112,112,112,112,112,112,112,112,112,112,112,112,112,
112,112,112,112,112,112,112,112,112,112,112,112,112,112,112,112,112,112,112,112
  </data>
 </layer>
 <layer id="2" name="buildings" width="20" height="20">
  <data encoding="csv">
1247,1247,0,0,0,0,0,0,0,154,155,156,0,0,0,0,0,0,1247,1247,
1247,0,0,0,0,0,0,0,0,154,155,156,0,0,0,0,0,0,0,1247,
0,0,0,4081,4081,4081,4081,4081,0,154,155,156,0,0,0,0,0,0,0,0,
0,0,0,4126,4127,4127,4127,4128,0,154,155,156,0,0,0,0,0,0,0,0,
0,0,0,4126,4127,4127,4127,4128,0,154,155,156,0,0,0,0,0,0,0,0,
154,154,154,4126,4127,4127,4127,4128,154,154,155,156,154,154,154,154,154,154,154,154,
155,155,155,4126,4127,4127,4127,4128,155,154,155,156,155,155,155,155,155,155,155,155,
156,156,156,4172,4172,0,4172,4173,156,154,155,156,156,156,156,156,156,156,156,156,
0,0,0,0,0,0,0,0,0,154,155,156,0,0,0,0,0,0,0,0,
0,0,0,0,0,0,0,0,0,154,155,156,0,0,0,0,0,0,0,0,
0,0,0,0,0,0,0,0,0,154,155,156,0,0,0,0,0,0,0,0,
0,0,0,0,0,0,0,0,0,154,155,156,0,0,0,0,0,0,0,0,
0,0,4081,4081,4081,4081,4081,0,0,154,155,156,0,0,0,0,0,0,0,0,
0,0,4126,4127,4127,4127,4128,0,0,154,155,156,0,0,0,0,0,0,0,0,
0,0,1247,4127,4127,4127,4128,0,0,154,155,156,0,0,0,0,0,0,0,0,
0,0,1247,4127,4127,4127,4128,0,0,154,155,156,0,0,0,0,0,0,0,0,
0,0,4126,4127,4127,4127,4128,0,0,154,155,156,0,0,0,0,0,0,0,0,
0,0,4126,4127,4127,4127,4128,0,0,154,155,156,0,0,0,0,0,0,0,0,
0,0,4172,4172,0,4172,4173,0,0,154,155,156,0,0,0,0,0,0,0,1247,
1247,1247,0,0,0,0,0,0,0,154,155,156,0,0,0,0,0,0,1247,1247
  </data>
 </layer>
 <layer id="3" name="overlay" width="20" height="20">
  <data encoding="csv">
1247,1247,0,0,0,0,0,0,0,0,0,0,0,0,0,0,0,0,1247,1247,
1247,0,0,0,0,0,0,0,0,0,0,0,0,0,0,0,0,0,0,1247,
0,0,0,0,0,0,0,0,0,0,0,0,0,0,0,0,0,0,0,0,
0,0,0,0,0,0,0,0,0,0,0,0,0,0,0,0,0,0,0,0,
0,0,0,0,0,0,0,0,0,0,0,0,0,0,0,0,0,0,0,0,
0,0,0,0,0,0,0,0,0,0,0,0,0,0,0,0,0,0,0,0,
0,0,0,0,0,0,0,0,0,0,0,0,0,0,0,0,0,0,0,0,
0,0,0,0,0,0,0,0,0,0,0,0,0,0,0,0,0,0,0,0,
0,0,0,0,0,0,0,0,0,0,0,0,0,0,0,0,0,0,0,0,
0,0,0,0,0,0,0,0,0,0,0,0,0,0,0,0,0,0,0,0,
0,0,0,0,0,0,0,0,0,0,0,0,0,0,0,0,0,0,0,0,
0,0,0,0,0,0,0,0,0,0,0,0,0,0,0,0,0,0,0,0,
0,0,0,0,0,0,0,0,0,0,0,0,0,0,0,0,0,0,0,0,
0,0,0,0,0,0,0,0,0,0,0,0,0,0,0,0,0,0,0,0,
0,0,1247,0,0,0,0,0,0,0,0,0,0,0,0,0,0,0,0,0,
0,0,1247,0,0,0,0,0,0,0,0,0,0,0,0,0,0,0,0,0,
0,0,0,0,0,0,0,0,0,0,0,0,0,0,0,0,0,0,0,0,
0,0,0,0,0,0,0,0,0,0,0,0,0,0,0,0,0,0,0,0,
0,0,0,0,0,0,0,0,0,0,0,0,0,0,0,0,0,0,0,1247,
1247,1247,0,0,0,0,0,0,0,0,0,0,0,0,0,0,0,0,1247,1247
  </data>
 </layer>
 <objectgroup name="collision">
  <object name="Tavern Keeper" type="event" x="80" y="64" width="16" height="16">
   <properties>
    <property name="act10" value="translated_dialog tavern_keeper"/>
    <property name="cond10" value="is char_facing_tile player"/>
    <property name="cond20" value="is button_pressed INTERACT"/>
   </properties>
  </object>
  <object name="Elder" type="event" x="48" y="224" width="16" height="16">
   <properties>
    <property name="act10" value="translated_dialog elder"/>
    <property name="cond10" value="is char_facing_tile player"/>
    <property name="cond20" value="is button_pressed INTERACT"/>
   </properties>
  </object>
 </objectgroup>
 <objectgroup name="events">
  <object name="East Exit" type="event" x="304" y="96" width="16" height="16">
   <properties>
    <property name="act10" value="transition_teleport player,route1.tmx,2,7,0.3"/>
    <property name="cond10" value="is char_at player"/>
    <property name="cond20" value="is char_facing player,right"/>
   </properties>
  </object>
 </objectgroup>
</map>